X:1
T:Title
%%score { ( 1 4 ) | ( 2 3 ) }
L:1/8
Q:1/4=110
M:4/4
K:C
V:1 treble nm="Grand Piano"
V:4 treble 
V:2 bass 
V:3 bass 
V:1
 [EG]4 [EG]3 [EG] | [FA]4 [EG]4 | [Ec]4 [GB]2 A2 | [CEG]8 | [G,DF]4 [G,EG]3 [G,DF] | %5
w: Robert~Lowry * *|||||
 [G,CE]4 [CEG]4 | G2 z2 [DF]2 z2 | [G,B,D]8 | [G,CE]4 [A,CF]3 [CFA] | [CEG]6 [CEc]2 | %10
w: |||||
 [CAc]4 [GB]2 A2 | [CEG]8 | [CFA]4 [FB]3 [Ec] | [Dd]4 c2 A2 | [B,DG]4 [A,C^F]4 | z4 F4 | E4 E3 E | %17
w: |||||||
 [EG]2 F2 [G,CE]2 D2 | C4 D3 D | E8 | D4[K:bass] z4[K:treble] | G3 [G,DF] [G,DF]4 | %22
w: |||||
 [G,CE]4 [G,DF]3 [G,DF] | [FA]3 [EG] [EG]4 | [FA]4 [FB]3 [FB] | [Ec]3 [EG] [EG]2 A2 | E4 [B,D]4 | %27
w: |||||
 C8 |] %28
w: |
V:2
 [C,C]4 [C,C]3 [C,C] | [C,C]4 [C,C]4 | [C,G,]4 z2 F2 | C,8 | B,,4 G,,3 G,, | C,4 C,4 | %6
 z2 F2 z2 C2 | G,,8 | C,4 C,3 C, | C,6 A,2 | F,4 z2 F2 | C,8 | F,4 [D,G,]3 [C,G,] | z4 G,2 z2 | %14
 D,4 D,4 | z4 D4 | [C,G,C]4 [C,G,C]3 [C,G,C] | z2 D2 z2 [F,B,]2 | [A,,E,A,]4 [F,A,]3 [F,A,] | %19
 [E,^G,B,]8 | [G,B,]4 [E,G,C]3 [E,G,C] | [D,G,B,]3 B,, B,,2 G,,2 | C,4 C,3 C, | %23
 [C,C]3 [C,C] [C,C]4 | [F,C]4 [D,G,]3 [D,G,] | [C,G,]3 [C,C] C2- [F,CF]2 | [G,C]4 [G,,F,]4 | %27
 [C,E,]8 |] %28
V:3
 x8 | x8 | z4 [C,C]4 | x8 | x8 | x8 | B,,4 C,4 | x8 | x8 | x8 | z4 F,4 | x8 | x8 | %13
 [B,,G,]4 C,2- [C,-A,][C,C] | x8 | G,,8 | x8 | [G,,G,]4 G,,4 | x8 | x8 | x8 | x8 | x8 | x8 | x8 | %25
 z4 C,2 z2 | x8 | x8 |] %28
V:4
 x8 | x8 | x8 | x8 | x8 | x8 | [G,D]4 G,2- [G,E]2 | x8 | x8 | x8 | z4 C4 | x8 | x8 | z4 E4 | x8 | %15
 [G,B,G]8 | x8 | x8 | x8 | x8 | z2[K:bass] F,2 E3[K:treble] E | x8 | x8 | x8 | x8 | x8 | x8 | x8 |] %28

